svg/u1f6ce.svg

<svg viewBox="0 0 128 128" xmlns="http://www.w3.org/2000/svg">
  <g>
    <path d="M9.66,87.9c-3.9,3.54-5.55,12.5-5.99,18.12c2.69,4.84,31.63,10.49,60.57,10.49 c29.03,0,57.58-5.62,60.09-10.47c-0.39-5.64-2.56-14.58-5.97-18.12C114.41,83.81,14.1,83.87,9.66,87.9z" fill="#8B5738"/>
    <ellipse cx="64" cy="90.07" rx="55.47" ry="10.49" fill="#CC8552"/>
    <ellipse cx="64" cy="87.16" rx="50.6" ry="8.05" fill="#4E342E"/>
    <g>
      <path d="M105.24,72.89c-8.69-3.47-26.54-4.88-40.75-4.88c-0.16,0-0.32,0-0.49,0c-0.16,0-0.32,0-0.49,0 c-14.21,0-31.68,2.62-40.75,4.88c-4.23,1.06-9.52,4.23-9.52,7.72c0,5.79,22.21,10.26,50.76,10.26s50.76-4.47,50.76-10.26 C114.76,77.12,110.53,75.01,105.24,72.89z" fill="#FFCA28"/>
      <path d="M64,31.67c-46.34,0-45.72,45.73-45.72,45.73C28.64,80.18,44.9,83.47,64,83.47 s35.36-3.29,45.72-6.06C109.72,77.4,110.34,31.67,64,31.67z" fill="#FFCA28"/>
    </g>
    <path d="M68.33,18.35h-8.65v14.72c0,0,0.9,1.26,4.33,1.26c3.42,0,4.33-1.26,4.33-1.26V18.35z" fill="#9E740B"/>
    <path d="M76.95,18.81c-2.15-0.89-13.63-0.89-13.67-0.89c-3.51,0-9.99,0.31-12.24,0.89l0.34,4.91 c1.01,1.49,5.49,2.62,12.55,2.62s11.43-1.08,12.55-2.62L76.95,18.81z" fill="#9E740B"/>
    <path d="M64.12,11.49c-9.86,0-13.08,6.42-13.08,7.31c0,1.48,5.67,2.62,12.95,2.62s12.95-1.14,12.95-2.62 C76.95,17.92,73.99,11.49,64.12,11.49z" fill="#FFCA28"/>
    <path d="M64.37,82.25c-35.23,0-45.9-7.7-45.9-7.7l0.42-4.14c0.92,0.41,11.88,7.84,45.48,7.84 c33.52,0,44.65-7.71,44.75-7.79l0.42,4.36C109.54,74.82,99.64,82.25,64.37,82.25z" fill="#E2A610"/>
    <path d="M55.56,17.91L55.56,17.91c-0.61-0.51-0.32-1.21,0.09-1.9c1.19-1.99,3.03-3.03,5.2-2.97 c2.69,0.09,2.83,1.71,1.95,2.72c-0.94,1.09-3.67,1.18-5.55,2.25C56.7,18.33,56.04,18.31,55.56,17.91z" fill="#FFF59D"/>
    <path d="M35.33,56.1l-1.88-2.38c-0.64-0.82-0.79-1.92-0.37-2.87c2.64-5.95,8.23-10.43,15.17-12.27 c1.22-0.33,2.49,0.39,2.87,1.59l1.47,4.54c0.47,1.47-0.4,2.99-1.89,3.4c-4.68,1.29-9.9,4.53-12.66,8.03 C37.35,57.01,36.01,56.98,35.33,56.1z" fill="#FFF59D"/>
  </g>
</svg>

<svg viewBox="0 0 128 128" xmlns="http://www.w3.org/2000/svg">
  <defs/>
  <path d="M9.66,87.9 C5.76,91.44 4.11,100.4 3.67,106.02 C6.36,110.86 35.3,116.51 64.24,116.51 C93.27,116.51 121.82,110.89 124.33,106.04 C123.94,100.4 121.77,91.46 118.36,87.92 C114.41,83.81 14.1,83.87 9.66,87.9 Z" fill="#8B5738"/>
  <path d="M119.47,90.07 A55.47 10.49 0 1 1 8.53,90.07 A55.47 10.49 0 1 1 119.47,90.07 Z" fill="#CC8552"/>
  <path d="M114.6,87.16 A50.6 8.05 0 1 1 13.4,87.16 A50.6 8.05 0 1 1 114.6,87.16 Z" fill="#4E342E"/>
  <path d="M105.24,72.89 C96.55,69.42 78.7,68.01 64.49,68.01 C64.33,68.01 64.17,68.01 64,68.01 C63.84,68.01 63.68,68.01 63.51,68.01 C49.3,68.01 31.83,70.63 22.76,72.89 C18.53,73.95 13.24,77.12 13.24,80.61 C13.24,86.4 35.45,90.87 64,90.87 C92.55,90.87 114.76,86.4 114.76,80.61 C114.76,77.12 110.53,75.01 105.24,72.89 Z" fill="#FFCA28"/>
  <path d="M64,31.67 C17.66,31.67 18.28,77.4 18.28,77.4 C28.64,80.18 44.9,83.47 64,83.47 C83.1,83.47 99.36,80.18 109.72,77.41 C109.72,77.4 110.34,31.67 64,31.67 Z" fill="#FFCA28"/>
  <path d="M68.33,18.35 L59.68,18.35 L59.68,33.07 C59.68,33.07 60.58,34.33 64.01,34.33 C67.43,34.33 68.34,33.07 68.34,33.07 L68.34,18.35 Z" fill="#9E740B"/>
  <path d="M76.95,18.81 C74.8,17.92 63.32,17.92 63.28,17.92 C59.77,17.92 53.29,18.23 51.04,18.81 L51.38,23.72 C52.39,25.21 56.87,26.34 63.93,26.34 C70.99,26.34 75.36,25.26 76.48,23.72 L76.95,18.81 Z" fill="#9E740B"/>
  <path d="M64.12,11.49 C54.26,11.49 51.04,17.91 51.04,18.8 C51.04,20.28 56.71,21.42 63.99,21.42 C71.27,21.42 76.94,20.28 76.94,18.8 C76.95,17.92 73.99,11.49 64.12,11.49 Z" fill="#FFCA28"/>
  <path d="M64.37,82.25 C29.14,82.25 18.47,74.55 18.47,74.55 L18.89,70.41 C19.81,70.82 30.77,78.25 64.37,78.25 C97.89,78.25 109.02,70.54 109.12,70.46 L109.54,74.82 C109.54,74.82 99.64,82.25 64.37,82.25 Z" fill="#E2A610"/>
  <path d="M55.56,17.91 L55.56,17.91 C54.95,17.4 55.24,16.7 55.65,16.01 C56.84,14.02 58.68,12.98 60.85,13.04 C63.54,13.13 63.68,14.75 62.8,15.76 C61.86,16.85 59.13,16.94 57.25,18.01 C56.7,18.33 56.04,18.31 55.56,17.91 Z" fill="#FFF59D"/>
  <path d="M35.33,56.1 L33.45,53.72 C32.81,52.9 32.66,51.8 33.08,50.85 C35.72,44.9 41.31,40.42 48.25,38.58 C49.47,38.25 50.74,38.97 51.12,40.17 L52.59,44.71 C53.06,46.18 52.19,47.7 50.7,48.11 C46.02,49.4 40.8,52.64 38.04,56.14 C37.35,57.01 36.01,56.98 35.33,56.1 Z" fill="#FFF59D"/>
</svg>
